X:459
T: Abschied vom Liebchen (171a), S. 374
N: T0347
O: Luxemburg
S: Singendes Volk, Esch-Alzette, 1937 posth.]
N: Medernach, fff Leny Goeres, Savelborn, 7.2.1916;
N: (171b)- Straen, fff Witry, 17.1.1933
R: Abschieds- und Wanderlieder, Heimatlieder,  Liebeslied]
M: 3/4
L: 1/8
K: G
DGA | B3GAG | FEz2
AB | d2c2EF | G2z
DGA | B3GAG | FEz2
AB | d2c2EF | G2z
DED | e3ddc | A2z
AAB | f3eddcF | G2z

@@@ Tune index: 8513
